src/public/images/gocardless.svg

<svg viewBox="0 0 40 40" fill="none" xmlns="http://www.w3.org/2000/svg">
  <rect width="40" height="40" rx="12" fill="#F1F252" />
  <g clip-path="url(#clip0_1702_8732)">
    <path
      d="M10 20.4816C10.0082 14.6927 14.4785 10 20.345 10C22.5964 10 23.862 10.3654 23.862 10.3654L27.6016 17.9811L27.5689 18.0138L22.7516 15.1581C19.9612 13.4925 17.9322 12.627 16.2829 12.6944C14.5417 12.7271 13.4946 14.1253 13.4946 16.1563C13.5579 21.3471 18.5038 27.7381 23.4068 27.7381C25.4133 27.7381 26.4564 27.0931 27.0688 26.3134L19.7938 18.3526V18.3179H29.7775C29.9143 19.0324 29.9898 19.755 30 20.4816C30 26.3073 25.5317 31 20.0143 31C14.4968 31 10 26.3073 10 20.4816Z"
      fill="#1C1B18"
    />
  </g>
  <defs>
    <clipPath id="clip0_1702_8732">
      <rect width="20" height="21" fill="white" transform="translate(10 10)" />
    </clipPath>
  </defs>
</svg>

<svg xmlns="http://www.w3.org/2000/svg" fill="none" viewBox="0 0 40 40">
  <rect width="40" height="40" fill="#F1F252" rx="12" />
  <path
    fill="#1C1B18"
    d="M10 20.48C10 14.7 14.48 10 20.34 10c2.26 0 3.52.37 3.52.37l3.74 7.61-.03.03-4.82-2.85c-2.79-1.67-4.82-2.53-6.47-2.47-1.74.04-2.79 1.44-2.79 3.47.07 5.19 5.01 11.58 9.92 11.58 2 0 3.05-.65 3.66-1.43l-7.28-7.96v-.03h9.99c.13.71.21 1.43.22 2.16C30 26.31 25.53 31 20.01 31 14.5 31 10 26.3 10 20.48Z"
  />
</svg>
